icons/outline/drone.svg

<!--
category: Vehicles
tags: [device, fly, aircraft, surveillance, control, autonomous]
version: "1.33"
unicode: "ed79"
-->
<svg
  xmlns="http://www.w3.org/2000/svg"
  width="24"
  height="24"
  viewBox="0 0 24 24"
  fill="none"
  stroke="currentColor"
  stroke-width="2"
  stroke-linecap="round"
  stroke-linejoin="round"
>
  <path d="M10 10h4v4h-4zm0 0l-3.5 -3.5m3.46 -.5a3.5 3.5 0 1 0 -3.96 3.96m8 .04l3.5 -3.5m.5 3.46a3.5 3.5 0 1 0 -3.96 -3.96m-.04 8l3.5 3.5m-3.46 .5a3.5 3.5 0 1 0 3.96 -3.96m-8 -.04l-3.5 3.5m-.5 -3.46a3.5 3.5 0 1 0 3.96 3.96" />
</svg>

<!--
category: Vehicles
tags: [device, fly, aircraft, surveillance, control, autonomous]
version: "1.33"
unicode: "ed79"
-->
<svg
  xmlns="http://www.w3.org/2000/svg"
  width="24"
  height="24"
  viewBox="0 0 24 24"
  fill="none"
  stroke="currentColor"
  stroke-width="2"
  stroke-linecap="round"
  stroke-linejoin="round"
>
    <path d="M10 10h4v4h-4zM10 10l-3.5 -3.5M9.96 6a3.5 3.5 0 1 0 -3.96 3.96M14 10l3.5 -3.5M18 9.96a3.5 3.5 0 1 0 -3.96 -3.96M14 14l3.5 3.5M14.04 18a3.5 3.5 0 1 0 3.96 -3.96M10 14l-3.5 3.5M6 14.04a3.5 3.5 0 1 0 3.96 3.96" />
</svg>
